X: 20697
T: Johnny Allen's
R: reel
M: 4/4
K: Dmajor
A3B AGFA|D=ccB ~c2Bc|A3B AGFE|DGGF ~G2FG|
ADBD AGFE|Ddde ~f3g|afge fded|dcAF ~G2FG:|
|:A3g fdec|Ad~d2 Ad~d2|A3g fdec|dcAF G2FG|
A3g fdec|Addc defg|afge fded|dcAF G2FG:|

